X:760
T:Danse des Paysans dans le Dioc\`ese de Bergen en Norv\`ege. [1]
T:peasant dance from the Bj\/orgvin Diocese, Norway
C:John Malchair's Third Collection of Tunes
F:https://www.vwml.org/record/Malchair/3619/p76
F:www.vwml.org/topics/historic-dance-and-tune-books/Malchair
Z:Eric Conrad Mar 2020
M:6/8
L:1/8
Q:"Grazioso."
K:Ddor
P:A
|: e | e>fd d>^cd | e>fd d>^cd | e>fd g>af | e3 Az :|
P:B
e | f2a aga | fed gaf | e3 az e | f2a aga | fed d^cd | efg fe^c | d3 x3 |]

